X:77
T:La Danaé
R:Chanson
O:France
B:Le livre des Chansons (Henri Davenson) n°77
Z:<anamnese@caramail.com> -- http://anamnese.fr.st
M:6/8
L:1/8
Q:1/4=80
K:F
C | F2 G A2 A | A A A A2 A | c2 B A2 G | G3 F2 z | A3 G3 | F C F G3 |!
G A B A3 |G F G A2 F |A3 G3 | F C F G3 | G A B A3 |G F G F2 z ||
W:L'était une frégate
W:Lonla, l'était une frégate
W:C'était la Danaé,
W:A prendre un ris dans les basses voiles
W:C'était la Danaé,
W:A prendre un ris dans les huniers. /.../

